X: 20877
T: Jolly Tinker, The
R: reel
M: 4/4
K: Adorian
A3B G3B|A2af gedB|A2BA G3B|dBGB d^cdB|
A^GAB =G3B|A2af gedB|A2BA GFGB|dBGB d2 (3Bcd||
edef g2ef|geag {a}gedg|edeg a2 e(a|a2)bg aged|
(3B^cd ef g2e(g|g2)af gedg|edeg a2e(a|a2)bg aged||
ea{b}ag egdg|ea{b}ag egdg|ea{b}ag efge|dBGB d2 (3Bcd|
ea a2 ea a2|ea a2 egdg|ea{b}ag efge|dBGB d2 (3Bcd||
edgd ed (3Bcd|edgd e2 (3Bcd|edgd eg{a}ge|dBGB d2 (3Bcd|
edgd ed (3Bcd|edgd e2 (3Bcd|edef gfge|dBGB dgfg||
eA A2 ed (3Bcd|edef g2fg|eA3 efge|dBGB d2 (3Bcd|
eA A2 ed (3Bcd|edef g2fg|ea{b}ag efge|dBGB d2 dB||

